assets/images/partners/partner-2.svg

<svg width="91" height="32" viewBox="0 0 91 32" fill="none" xmlns="http://www.w3.org/2000/svg">
<path d="M90.7459 21.945C90.3556 22.3988 90.0374 22.9694 89.5615 23.2828C88.4852 23.9938 87.3968 23.604 86.4376 22.3005C82.452 24.0515 79.0354 23.3171 76.8482 20.2408C75.8705 18.8602 75.3648 17.1799 75.4113 15.4667C75.4578 13.7535 76.0539 12.1055 77.1049 10.7843C78.219 9.39426 79.7733 8.46172 81.4892 8.15373C83.2051 7.84574 84.9705 8.18241 86.4691 9.10344C87.6265 7.85607 88.5557 7.55515 89.593 8.25991C90.0644 8.57954 90.3721 9.15801 90.7534 9.61953L90.7459 21.945ZM79.2921 15.7176C79.3098 16.663 79.6848 17.5633 80.3362 18.2241C80.9875 18.8848 81.8628 19.253 82.7733 19.2492C84.6572 19.2351 86.2485 17.598 86.2379 15.6817C86.2274 13.7655 84.6302 12.1049 82.7778 12.0955C81.8539 12.0984 80.9687 12.481 80.3156 13.1597C79.6624 13.8384 79.2945 14.758 79.2921 15.7176ZM62.26 23.1363V27.5956C62.26 27.9854 62.2735 28.3752 62.26 28.765C62.1939 30.0981 61.2512 31.029 59.9677 31.0445C58.6842 31.0601 57.6785 30.1371 57.5959 28.8414C57.5434 28.0135 57.5719 27.1777 57.5704 26.3467C57.5704 21.2013 57.5839 16.0559 57.5599 10.9106C57.5599 9.7583 57.7941 8.77912 58.8374 8.21937C59.8326 7.683 60.7543 7.87478 61.619 8.61385C61.7541 8.72767 62.1204 8.64815 62.3351 8.55148C66.8235 6.52451 72.004 9.21414 72.9857 14.1334C73.5742 17.0803 72.8086 19.6764 70.6665 21.7096C68.4808 23.7849 65.9003 24.3025 63.0631 23.4044C62.8424 23.328 62.6323 23.2548 62.26 23.1363ZM65.513 12.0659C65.032 12.0612 64.5549 12.1553 64.1091 12.343C63.6633 12.5306 63.2576 12.808 62.9155 13.1591C62.5734 13.5103 62.3015 13.9283 62.1156 14.3891C61.9296 14.8498 61.8333 15.3443 61.8322 15.8439C61.8289 16.594 62.0398 17.3283 62.4381 17.954C62.8364 18.5797 63.4043 19.0688 64.0701 19.3595C64.7359 19.6502 65.4696 19.7294 66.1787 19.5872C66.8878 19.4449 67.5405 19.0876 68.0542 18.5604C68.5679 18.0331 68.9196 17.3596 69.065 16.6248C69.2103 15.89 69.1428 15.127 68.8709 14.432C68.599 13.7371 68.1349 13.1415 67.5372 12.7203C66.9396 12.2992 66.2352 12.0715 65.513 12.0659ZM43.7507 23.1363C43.7507 25.0744 43.7673 26.8908 43.7432 28.7073C43.7448 29.1925 43.599 29.6659 43.3265 30.0601C43.054 30.4543 42.6688 30.7491 42.2256 30.9027C41.2738 31.2145 40.3281 31.096 39.7021 30.2478C39.3288 29.7381 39.1136 29.1225 39.0852 28.4828C39.0401 22.4814 39.0596 16.4769 39.0566 10.4787C39.0566 9.45582 39.4394 8.6575 40.3326 8.18974C41.2258 7.72198 42.152 7.80306 42.9206 8.49223C43.3169 8.84617 43.5961 8.63879 43.9309 8.49223C48.3953 6.57441 53.3882 9.17672 54.424 14.0087C55.071 17.0148 54.3039 19.6374 52.1137 21.7127C49.9235 23.788 47.3881 24.276 44.5869 23.4091C44.3452 23.3374 44.1125 23.2594 43.7507 23.1363ZM46.9257 19.6156C47.6453 19.619 48.3496 19.4006 48.9497 18.9881C49.5497 18.5756 50.0185 17.9875 50.2967 17.2982C50.5749 16.6089 50.65 15.8494 50.5125 15.1157C50.375 14.3821 50.031 13.7073 49.5242 13.1768C49.0174 12.6462 48.3704 12.2837 47.6652 12.1351C46.96 11.9865 46.2282 12.0586 45.5624 12.3421C44.8966 12.6256 44.3267 13.1079 43.9249 13.7279C43.5231 14.3479 43.3073 15.0778 43.3049 15.8252C43.2989 17.8615 44.9667 19.6078 46.9257 19.6218V19.6156ZM20.678 10.8669V2.6764C20.681 1.08913 21.6192 0.0600586 23.0423 0.0600586C24.4654 0.0600586 25.3856 1.12499 25.3856 2.69979C25.3856 7.77032 25.3961 12.8346 25.3766 17.9114C25.3766 18.5756 25.4922 19.0028 26.1647 19.2819C27.2621 19.7497 27.7439 20.9768 27.4107 22.1243C27.255 22.692 26.9095 23.1834 26.4362 23.5101C25.9629 23.8368 25.3929 23.9773 24.8287 23.9065C22.3203 23.6227 20.7035 21.7548 20.6825 19.0574C20.66 16.3272 20.678 13.5971 20.678 10.8669ZM12.3361 15.8891L16.0364 19.4113C17.1968 20.5168 17.3424 22.0511 16.3892 23.13C15.436 24.209 13.9573 24.1856 12.7864 23.0817C10.934 21.3416 9.08258 19.6005 7.23215 17.8584C6.03123 16.7264 6.02072 15.1251 7.21564 13.9822C9.08708 12.1901 10.967 10.4049 12.8555 8.62632C13.9678 7.58009 15.472 7.61596 16.4042 8.67777C17.3364 9.73959 17.2163 11.2333 16.1295 12.2889C14.8925 13.4895 13.6301 14.6636 12.3361 15.8891ZM30.5376 15.8376C30.5376 14.0461 30.5286 12.2515 30.5376 10.4631C30.5466 8.92413 31.5329 7.89194 32.962 7.90129C34.34 7.90909 35.3158 8.94752 35.3203 10.4521C35.3293 14.0633 35.3293 17.6733 35.3203 21.2824C35.3203 22.812 34.283 23.933 32.9334 23.9221C31.5479 23.905 30.5451 22.8166 30.5316 21.2917C30.5301 19.4737 30.5376 17.6557 30.5376 15.8376ZM0.771181 6.33429C0.771181 5.13994 0.75617 3.94559 0.771181 2.74812C0.804207 1.08446 1.73042 0.0600586 3.15502 0.0600586C4.61564 0.0678546 5.55686 1.1515 5.56587 2.81517C5.56587 5.25688 5.57488 7.69859 5.56587 10.1434C5.57558 10.6666 5.4237 11.1793 5.13249 11.6064C4.84127 12.0334 4.42604 12.3524 3.94763 12.5165C2.97938 12.8455 1.86552 12.5789 1.32361 11.7229C1.01337 11.2009 0.831873 10.6075 0.7952 9.9953C0.71714 8.78068 0.772682 7.55515 0.771181 6.33429Z" fill="#9C9C9C"/>
<path d="M5.44194 21.3293C5.44194 22.8308 4.55025 23.7928 3.14968 23.7912C1.81665 23.7912 0.864918 22.7902 0.858913 21.3823C0.852909 19.9743 1.86619 18.8751 3.1767 18.8876C4.4872 18.9 5.43894 19.9197 5.44194 21.3293Z" fill="#9C9C9C"/>
</svg>

<svg xmlns="http://www.w3.org/2000/svg" width="91" height="32" fill="#9c9c9c" xmlns:v="https://vecta.io/nano"><path d="M90.746 21.945c-.39.454-.709 1.024-1.184 1.338-1.076.711-2.165.321-3.124-.982-3.986 1.751-7.402 1.017-9.589-2.06a7.9 7.9 0 0 1-1.437-4.774 7.87 7.87 0 0 1 1.694-4.682c1.114-1.39 2.668-2.323 4.384-2.631a7.1 7.1 0 0 1 4.98.95c1.157-1.247 2.087-1.548 3.124-.844.471.32.779.898 1.16 1.36l-.007 12.325zm-11.454-6.227a3.67 3.67 0 0 0 1.044 2.507 3.4 3.4 0 0 0 2.437 1.025c1.884-.014 3.475-1.651 3.465-3.567s-1.608-3.577-3.46-3.586c-.924.003-1.809.386-2.462 1.064a3.7 3.7 0 0 0-1.023 2.558zM62.26 23.136v4.459 1.169c-.066 1.333-1.009 2.264-2.292 2.279s-2.289-.907-2.372-2.203c-.053-.828-.024-1.664-.026-2.495l-.011-15.436c0-1.152.234-2.131 1.278-2.691.995-.536 1.917-.345 2.782.394.135.114.501.034.716-.062 4.488-2.027 9.669.663 10.651 5.582.589 2.947-.177 5.543-2.319 7.576-2.186 2.075-4.766 2.593-7.603 1.695l-.803-.268zm3.253-11.07c-.481-.005-.958.089-1.404.277a3.64 3.64 0 0 0-1.194.816 3.8 3.8 0 0 0-.8 1.23 3.91 3.91 0 0 0-.283 1.455 3.9 3.9 0 0 0 .606 2.11 3.69 3.69 0 0 0 1.632 1.406 3.53 3.53 0 0 0 2.109.228 3.61 3.61 0 0 0 1.875-1.027 3.84 3.84 0 0 0 1.011-1.936c.145-.735.078-1.498-.194-2.193a3.77 3.77 0 0 0-1.334-1.712 3.56 3.56 0 0 0-2.024-.654zm-21.762 11.07l-.008 5.571a2.36 2.36 0 0 1-.417 1.353 2.23 2.23 0 0 1-1.101.843c-.952.312-1.898.193-2.523-.655a3.23 3.23 0 0 1-.617-1.765l-.029-18.004c0-1.023.383-1.821 1.276-2.289s1.819-.387 2.588.302c.396.354.675.147 1.01 0 4.464-1.918 9.457.684 10.493 5.516.647 3.006-.12 5.629-2.31 7.704s-4.726 2.563-7.527 1.696a21.93 21.93 0 0 1-.836-.273zm3.175-3.521a3.54 3.54 0 0 0 2.024-.628 3.75 3.75 0 0 0 1.347-1.69 3.92 3.92 0 0 0 .216-2.183 3.83 3.83 0 0 0-.988-1.939 3.6 3.6 0 0 0-1.859-1.042 3.51 3.51 0 0 0-2.103.207 3.67 3.67 0 0 0-1.637 1.386c-.402.62-.618 1.35-.62 2.097-.006 2.036 1.662 3.783 3.621 3.797v-.006zm-26.248-8.749v-8.19c.003-1.587.941-2.616 2.364-2.616s2.343 1.065 2.343 2.64l-.009 15.212c0 .664.116 1.091.788 1.37 1.097.468 1.579 1.695 1.246 2.842a2.48 2.48 0 0 1-.974 1.386c-.473.327-1.043.467-1.607.396-2.508-.284-4.125-2.152-4.146-4.849l-.005-8.191zm-8.342 5.022l3.7 3.522c1.16 1.105 1.306 2.64.353 3.719s-2.432 1.056-3.603-.048l-5.554-5.223c-1.201-1.132-1.211-2.733-.017-3.876l5.64-5.356c1.112-1.046 2.617-1.01 3.549.051s.812 2.556-.275 3.611l-3.793 3.6zm18.202-.051v-5.374c.009-1.539.995-2.571 2.424-2.562 1.378.008 2.354 1.046 2.358 2.551v10.83c0 1.53-1.037 2.651-2.387 2.64-1.386-.017-2.388-1.105-2.402-2.63l.006-5.454zM.771 6.334V2.748C.804 1.084 1.73.06 3.155.06c1.461.008 2.402 1.091 2.411 2.755v7.328c.01.523-.142 1.036-.433 1.463s-.706.746-1.185.91c-.968.329-2.082.062-2.624-.794a3.83 3.83 0 0 1-.528-1.728C.717 8.781.773 7.555.771 6.334zm4.671 14.995c0 1.502-.892 2.464-2.292 2.462-1.333 0-2.285-1.001-2.291-2.409s1.007-2.507 2.318-2.495 2.262 1.032 2.265 2.442z"/></svg>
